img/site-icons/footer/telegram.svg

<svg width="1000" height="1000" viewBox="0 0 1000 1000" fill="none" xmlns="http://www.w3.org/2000/svg">
<path d="M500 12C411.333 12 329 34.3333 253 79C179.667 121.667 121.667 179.667 79 253C34.3333 329 12 411.333 12 500C12 588.667 34.3333 671 79 747C121.667 820.333 179.667 878.333 253 921C329 965.667 411.333 988 500 988C588.667 988 671 965.667 747 921C820.333 878.333 878.333 820.333 921 747C965.667 671 988 588.667 988 500C988 411.333 965.667 329 921 253C878.333 179.667 820.333 121.667 747 79C671 34.3333 588.667 12 500 12ZM726 344C722.667 378.667 714.667 436 702 516C692 578.667 681.667 638.333 671 695C665 727 654 743.667 638 745C628 745.667 617.667 743.333 607 738C600.333 735.333 590.333 729.333 577 720L560 708C546.667 699.333 529.333 687.667 508 673C484.667 657 465.667 644.333 451 635C437.667 626.333 429.833 618.333 427.5 611C425.167 603.667 426.333 596.333 431 589C434.333 584.333 441 577 451 567L480 540C556.667 469.333 595.667 431.333 597 426C597 421.333 596 418.167 594 416.5C592 414.833 588.5 414.667 583.5 416C578.5 417.333 510 462.667 378 552C358.667 565.333 341 571.833 325 571.5C309 571.167 283.667 565.333 249 554L241 551C224.333 545.667 213.333 541.667 208 539C199.333 534.333 195.333 528.667 196 522C198 512.667 210.333 503.667 233 495C362.333 438.333 457 397.333 517 372C584.333 344 629.333 326 652 318C674.667 310 690.667 305.667 700 305C708 305 714.333 307 719 311C722.333 314.333 724.667 318.5 726 323.5C727.333 328.5 727.333 335.333 726 344Z" fill="#ED9092"/>
</svg>

<?xml version="1.0" encoding="UTF-8" standalone="no"?>
<svg
   viewBox="0 0 1000 1000"
   version="1.1"
   id="svg760"
   sodipodi:docname="telegram.svg"
   inkscape:version="1.2.2 (b0a8486541, 2022-12-01)"
   xmlns:inkscape="http://www.inkscape.org/namespaces/inkscape"
   xmlns:sodipodi="http://sodipodi.sourceforge.net/DTD/sodipodi-0.dtd"
   xmlns="http://www.w3.org/2000/svg"
   xmlns:svg="http://www.w3.org/2000/svg">
  <defs
     id="defs764" />
  <sodipodi:namedview
     id="namedview762"
     pagecolor="#ffffff"
     bordercolor="#666666"
     borderopacity="1.0"
     inkscape:showpageshadow="2"
     inkscape:pageopacity="0.0"
     inkscape:pagecheckerboard="0"
     inkscape:deskcolor="#d1d1d1"
     showgrid="false"
     inkscape:zoom="0.779"
     inkscape:cx="500"
     inkscape:cy="499.35815"
     inkscape:window-width="1920"
     inkscape:window-height="959"
     inkscape:window-x="0"
     inkscape:window-y="48"
     inkscape:window-maximized="1"
     inkscape:current-layer="svg760" />
  <path
     d="M500 12q-133 0-247 67-110 64-174 174-67 114-67 247 0 133 67 247 64 110 174 174 114 67 247 67 133 0 247-67 110-64 174-174 67-114 67-247 0-133-67-247-64-110-174-174-114-67-247-67z m226 332q-5 52-24 172-15 94-31 179-9 48-33 50-15 1-31-7-10-4-30-18l-17-12q-20-13-52-35-35-24-57-38-20-13-23.5-24-3.5-11 3.5-22 5-7 20-22l29-27q115-106 117-114 0-7-3-9.5-3-2.5-10.5-0.5-7.5 2-205.5 136-29 20-53 19.5-24-0.5-76-17.5l-8-3q-25-8-33-12-13-7-12-17 3-14 37-27 194-85 284-123 101-42 135-54 34-12 48-13 12 0 19 6 5 5 7 12.5 2 7.5 0 20.5z"
     id="path758"
     style="fill:#8c939a;fill-opacity:1" />
</svg>
